_src/_includes/img/icons/duotone-icons/Devices/CPU#1.svg

<svg height="24" viewBox="0 0 24 24" width="24" xmlns="http://www.w3.org/2000/svg"><g fill="none" fill-rule="evenodd"><path d="m0 0h24v24h-24z"/><g fill="#335eea"><rect height="16" opacity=".3" rx="2" width="16" x="4" y="4"/><path d="m9 9h6v6h-6z" opacity=".3"/><path d="m20 7h1a1 1 0 0 1 0 2h-1zm0 4h1a1 1 0 0 1 0 2h-1zm0 4h1a1 1 0 0 1 0 2h-1zm-17-8h1v2h-1a1 1 0 1 1 0-2zm0 4h1v2h-1a1 1 0 0 1 0-2zm0 4h1v2h-1a1 1 0 0 1 0-2z"/></g></g></svg>

<svg width="24" height="24" viewBox="0 0 24 24" xmlns="http://www.w3.org/2000/svg"><g fill="none" fill-rule="evenodd"><path d="M0 0h24v24H0z"/><rect fill="#335EEA" opacity=".3" x="4" y="4" width="16" height="16" rx="2"/><path fill="#335EEA" opacity=".3" d="M9 9h6v6H9z"/><path d="M20 7h1a1 1 0 010 2h-1V7zM20 11h1a1 1 0 010 2h-1v-2zM20 15h1a1 1 0 010 2h-1v-2zM3 7h1v2H3a1 1 0 110-2zM3 11h1v2H3a1 1 0 010-2zM3 15h1v2H3a1 1 0 010-2z" fill="#335EEA"/></g></svg>
